symbols/web/1k/materialsymbolsrounded/1k_wght700_48px.svg

<svg xmlns="http://www.w3.org/2000/svg" height="48" width="48"><path d="M25.9 30q.55 0 .9-.35t.35-.9V25.5L31 29.7q.2.2.4.25.2.05.45.05.8 0 1.125-.725.325-.725-.225-1.325L29.05 24l3.7-4q.6-.55.275-1.275Q32.7 18 31.85 18q-.25 0-.45.1t-.4.25l-3.85 4.15v-3.3q0-.5-.35-.85t-.9-.35q-.55 0-.9.35t-.35.9v9.55q0 .5.35.85t.9.35Zm-7.85 0q.55 0 .9-.35t.35-.9v-9.5q0-.55-.35-.9t-.9-.35h-3.2q-.5 0-.85.35t-.35.9q0 .55.35.9t.9.35h1.9v8.3q0 .5.35.85t.9.35Zm-8.6 13.25q-1.95 0-3.325-1.375Q4.75 40.5 4.75 38.55V9.45q0-1.9 1.375-3.325Q7.5 4.7 9.45 4.7h29.1q1.9 0 3.325 1.425Q43.3 7.55 43.3 9.45v29.1q0 1.95-1.425 3.325-1.425 1.375-3.325 1.375Zm0-4.7h29.1V9.45H9.45v29.1Zm0-29.1v29.1-29.1Z"/></svg>

<svg xmlns="http://www.w3.org/2000/svg" height="48" width="48"><path d="M25.9 30Q26.45 30 26.8 29.65Q27.15 29.3 27.15 28.75V25.5L31 29.7Q31.2 29.9 31.4 29.95Q31.6 30 31.85 30Q32.65 30 32.975 29.275Q33.3 28.55 32.75 27.95L29.05 24L32.75 20Q33.35 19.45 33.025 18.725Q32.7 18 31.85 18Q31.6 18 31.4 18.1Q31.2 18.2 31 18.35L27.15 22.5V19.2Q27.15 18.7 26.8 18.35Q26.45 18 25.9 18Q25.35 18 25 18.35Q24.65 18.7 24.65 19.25V28.8Q24.65 29.3 25 29.65Q25.35 30 25.9 30ZM18.05 30Q18.6 30 18.95 29.65Q19.3 29.3 19.3 28.75V19.25Q19.3 18.7 18.95 18.35Q18.6 18 18.05 18H14.85Q14.35 18 14 18.35Q13.65 18.7 13.65 19.25Q13.65 19.8 14 20.15Q14.35 20.5 14.9 20.5H16.8V28.8Q16.8 29.3 17.15 29.65Q17.5 30 18.05 30ZM9.45 43.25Q7.5 43.25 6.125 41.875Q4.75 40.5 4.75 38.55V9.45Q4.75 7.55 6.125 6.125Q7.5 4.7 9.45 4.7H38.55Q40.45 4.7 41.875 6.125Q43.3 7.55 43.3 9.45V38.55Q43.3 40.5 41.875 41.875Q40.45 43.25 38.55 43.25ZM9.45 38.55H38.55Q38.55 38.55 38.55 38.55Q38.55 38.55 38.55 38.55V9.45Q38.55 9.45 38.55 9.45Q38.55 9.45 38.55 9.45H9.45Q9.45 9.45 9.45 9.45Q9.45 9.45 9.45 9.45V38.55Q9.45 38.55 9.45 38.55Q9.45 38.55 9.45 38.55ZM9.45 9.45Q9.45 9.45 9.45 9.45Q9.45 9.45 9.45 9.45V38.55Q9.45 38.55 9.45 38.55Q9.45 38.55 9.45 38.55Q9.45 38.55 9.45 38.55Q9.45 38.55 9.45 38.55V9.45Q9.45 9.45 9.45 9.45Q9.45 9.45 9.45 9.45Z"/></svg>
